svg/color_dropper.svg

<svg xmlns="http://www.w3.org/2000/svg" viewBox="0 0 32 32" enable-background="new 0 0 32 32"><path d="M 24.65625 3.03125 C 23.547884 3.03125 22.434125 3.4408751 21.59375 4.28125 L 18.8125 7.09375 L 17.8125 6.09375 L 16.40625 7.5 L 17.40625 8.5 L 7.90625 18 C 6.8664752 19.039775 6.2725381 19.791788 5.90625 20.46875 C 5.5399619 21.145712 5.4118089 21.754084 5.34375 22.15625 C 5.2756911 22.558416 5.2436387 22.776772 5 23.21875 C 4.7563613 23.660728 4.2674454 24.295055 3.28125 25.28125 L 2.59375 26 L 3.28125 26.71875 L 5.28125 28.71875 L 6 29.40625 L 6.71875 28.71875 C 7.6789752 27.758525 8.2925868 27.293087 8.71875 27.0625 C 9.1449132 26.831913 9.3709163 26.788191 9.78125 26.71875 C 10.191584 26.64931 10.782603 26.534486 11.46875 26.15625 C 12.154897 25.778014 12.936195 25.157555 14 24.09375 L 23.5 14.59375 L 24.5 15.59375 L 25.90625 14.1875 L 24.90625 13.1875 L 27.71875 10.40625 C 29.3995 8.7255002 29.3995 5.9619998 27.71875 4.28125 C 26.878375 3.4408751 25.764616 3.03125 24.65625 3.03125 z M 24.65625 5.03125 C 25.247884 5.03125 25.821625 5.2591249 26.28125 5.71875 C 27.2005 6.6380002 27.2005 8.0807498 26.28125 9 L 23.5 11.78125 L 20.21875 8.5 L 23 5.71875 C 23.459625 5.2591249 24.064616 5.03125 24.65625 5.03125 z M 18.8125 9.90625 L 22.09375 13.1875 L 12.59375 22.6875 C 11.607555 23.673695 10.941978 24.162611 10.5 24.40625 C 10.058022 24.649889 9.8396663 24.681941 9.4375 24.75 C 9.0353337 24.81806 8.4582118 24.914962 7.78125 25.28125 C 7.3209986 25.530281 6.6943854 26.127577 6.09375 26.65625 L 5.34375 25.90625 C 5.8914278 25.287399 6.4912031 24.656976 6.75 24.1875 C 7.1282363 23.501353 7.2430589 22.879084 7.3125 22.46875 C 7.3819411 22.058416 7.4256631 21.863663 7.65625 21.4375 C 7.8868369 21.011337 8.3522748 20.366475 9.3125 19.40625 L 18.8125 9.90625 z" color="#000" overflow="visible" enable-background="accumulate"/></svg>

<svg xmlns="http://www.w3.org/2000/svg" viewBox="0 0 32 32"><path style="text-indent:0;text-align:start;line-height:normal;text-transform:none;block-progression:tb;-inkscape-font-specification:Bitstream Vera Sans" d="M24.656 3.03c-1.108 0-2.222.41-3.062 1.25l-2.782 2.814-1-1L16.407 7.5l1 1-9.5 9.5c-1.04 1.04-1.633 1.792-2 2.47-.366.676-.494 1.284-.562 1.686-.068.402-.1.62-.344 1.063-.244.44-.733 1.075-1.72 2.06l-.686.72.687.72 2 2 .72.686.72-.687c.96-.96 1.573-1.427 2-1.657.425-.23.65-.275 1.06-.344.412-.07 1.003-.186 1.69-.564.685-.378 1.466-.998 2.53-2.062l9.5-9.5 1 1 1.406-1.406-1-1 2.813-2.782c1.68-1.68 1.68-4.444 0-6.125-.842-.84-1.955-1.25-3.064-1.25zm0 2c.592 0 1.166.23 1.625.69.92.918.92 2.36 0 3.28l-2.78 2.78-3.28-3.28L23 5.72c.46-.46 1.065-.69 1.656-.69zm-5.843 4.876l3.28 3.28-9.5 9.502c-.985.986-1.65 1.475-2.093 1.718-.442.244-.66.276-1.063.344-.402.068-.98.165-1.656.53-.46.25-1.086.848-1.686 1.376l-.75-.75c.547-.62 1.147-1.25 1.406-1.718.378-.687.493-1.31.563-1.72.07-.41.113-.604.343-1.03.23-.427.696-1.072 1.657-2.032l9.5-9.5z" color="#000" overflow="visible" font-family="Bitstream Vera Sans"/></svg>
